src/gui/emoticons/skull.svg

<svg xmlns="http://www.w3.org/2000/svg" xmlns:xlink="http://www.w3.org/1999/xlink" width="16pt" height="16pt" version="1.1" viewBox="0 0 16 16"><defs><linearGradient id="linear0" x1="64" x2="64" y1="105.26" y2="22.739" gradientTransform="matrix(0.125,0,0,0.125,0,0)" gradientUnits="userSpaceOnUse"><stop offset=".001" style="stop-color:#c7c7c7;stop-opacity:1"/><stop offset=".28" style="stop-color:#cacaca;stop-opacity:1"/><stop offset=".525" style="stop-color:#d5d5d5;stop-opacity:1"/><stop offset=".758" style="stop-color:#e7e7e7;stop-opacity:1"/><stop offset=".947" style="stop-color:#fcfcfc;stop-opacity:1"/></linearGradient></defs><g id="surface1"><path style="stroke:none;fill-rule:nonzero;fill:#ccc;fill-opacity:1" d="M 2.546875 14.214844 C 2.308594 14.214844 2.085938 14.109375 1.933594 13.921875 C 1.734375 13.675781 1.765625 13.394531 1.796875 13.25 C 1.816406 13.175781 1.796875 13.097656 1.75 13.035156 C 1.703125 12.976562 1.632812 12.945312 1.554688 12.945312 L 1.53125 12.945312 C 1.28125 12.945312 1.066406 12.847656 0.921875 12.671875 C 0.652344 12.335938 0.707031 11.839844 1.042969 11.566406 C 1.183594 11.453125 1.355469 11.390625 1.535156 11.390625 C 1.765625 11.390625 1.980469 11.492188 2.128906 11.664062 C 2.136719 11.683594 2.148438 11.703125 2.164062 11.730469 C 2.207031 11.78125 2.265625 11.820312 2.332031 11.828125 C 2.34375 11.828125 2.355469 11.828125 2.363281 11.828125 C 2.421875 11.828125 2.476562 11.808594 2.523438 11.773438 L 12.855469 3.429688 C 12.90625 3.390625 12.941406 3.328125 12.949219 3.257812 C 12.953125 3.191406 12.929688 3.121094 12.886719 3.070312 C 12.867188 3.050781 12.847656 3.035156 12.832031 3.023438 C 12.578125 2.6875 12.636719 2.207031 12.964844 1.941406 C 13.105469 1.828125 13.277344 1.765625 13.457031 1.765625 C 13.695312 1.765625 13.917969 1.871094 14.070312 2.058594 C 14.265625 2.300781 14.238281 2.582031 14.203125 2.726562 C 14.1875 2.800781 14.203125 2.882812 14.253906 2.941406 C 14.300781 3 14.371094 3.035156 14.449219 3.035156 L 14.472656 3.035156 C 14.71875 3.035156 14.9375 3.132812 15.078125 3.308594 C 15.351562 3.644531 15.296875 4.140625 14.960938 4.414062 C 14.820312 4.527344 14.648438 4.585938 14.46875 4.585938 C 14.238281 4.585938 14.023438 4.488281 13.875 4.316406 C 13.867188 4.296875 13.855469 4.273438 13.835938 4.25 C 13.796875 4.195312 13.734375 4.160156 13.667969 4.152344 C 13.660156 4.152344 13.648438 4.148438 13.636719 4.148438 C 13.578125 4.148438 13.523438 4.171875 13.480469 4.203125 L 3.148438 12.546875 C 3.097656 12.589844 3.0625 12.652344 3.054688 12.722656 C 3.050781 12.792969 3.074219 12.859375 3.117188 12.910156 C 3.136719 12.929688 3.15625 12.945312 3.171875 12.957031 C 3.425781 13.300781 3.363281 13.777344 3.039062 14.042969 C 2.894531 14.152344 2.726562 14.214844 2.546875 14.214844 Z M 2.546875 14.214844"/><path style="stroke:none;fill-rule:nonzero;fill:#a1a1a1;fill-opacity:1" d="M 13.453125 2.015625 C 13.617188 2.015625 13.769531 2.085938 13.871094 2.210938 C 14 2.375 13.980469 2.566406 13.957031 2.667969 C 13.921875 2.820312 13.957031 2.976562 14.054688 3.097656 C 14.148438 3.214844 14.292969 3.285156 14.445312 3.285156 L 14.46875 3.285156 C 14.566406 3.285156 14.753906 3.308594 14.882812 3.464844 C 15.066406 3.695312 15.027344 4.03125 14.800781 4.214844 C 14.679688 4.3125 14.550781 4.335938 14.464844 4.335938 C 14.320312 4.335938 14.179688 4.277344 14.082031 4.171875 C 14.070312 4.148438 14.054688 4.125 14.035156 4.097656 C 13.953125 3.988281 13.832031 3.921875 13.695312 3.902344 C 13.675781 3.898438 13.65625 3.898438 13.636719 3.898438 C 13.519531 3.898438 13.410156 3.9375 13.320312 4.011719 L 2.988281 12.355469 C 2.882812 12.441406 2.816406 12.566406 2.804688 12.699219 C 2.792969 12.835938 2.835938 12.96875 2.925781 13.074219 C 2.949219 13.09375 2.96875 13.113281 2.984375 13.128906 C 3.140625 13.355469 3.097656 13.667969 2.878906 13.84375 C 2.757812 13.941406 2.632812 13.964844 2.546875 13.964844 C 2.382812 13.964844 2.230469 13.890625 2.128906 13.765625 C 2 13.601562 2.019531 13.410156 2.042969 13.308594 C 2.078125 13.15625 2.042969 13 1.945312 12.878906 C 1.851562 12.761719 1.707031 12.691406 1.554688 12.691406 L 1.53125 12.691406 C 1.433594 12.691406 1.246094 12.667969 1.121094 12.511719 C 0.933594 12.28125 0.972656 11.945312 1.199219 11.757812 C 1.320312 11.660156 1.449219 11.640625 1.535156 11.640625 C 1.683594 11.640625 1.820312 11.699219 1.921875 11.804688 C 1.929688 11.824219 1.949219 11.851562 1.964844 11.875 C 2.046875 11.984375 2.171875 12.054688 2.304688 12.074219 C 2.324219 12.074219 2.34375 12.078125 2.363281 12.078125 C 2.480469 12.078125 2.589844 12.039062 2.679688 11.964844 L 13.011719 3.625 C 13.117188 3.539062 13.183594 3.414062 13.195312 3.277344 C 13.207031 3.140625 13.164062 3.007812 13.074219 2.90625 C 13.050781 2.882812 13.03125 2.863281 13.015625 2.847656 C 12.859375 2.621094 12.902344 2.308594 13.121094 2.132812 C 13.242188 2.035156 13.371094 2.015625 13.453125 2.015625 M 13.453125 1.515625 C 13.226562 1.515625 12.996094 1.589844 12.804688 1.746094 C 12.363281 2.105469 12.292969 2.753906 12.652344 3.199219 C 12.664062 3.214844 12.683594 3.222656 12.699219 3.234375 L 2.363281 11.578125 C 2.351562 11.5625 2.351562 11.542969 2.335938 11.527344 C 2.132812 11.273438 1.835938 11.140625 1.535156 11.140625 C 1.304688 11.140625 1.078125 11.21875 0.886719 11.371094 C 0.441406 11.734375 0.371094 12.382812 0.730469 12.828125 C 0.933594 13.078125 1.230469 13.195312 1.53125 13.195312 L 1.554688 13.195312 C 1.484375 13.496094 1.53125 13.820312 1.738281 14.078125 C 1.945312 14.332031 2.246094 14.464844 2.546875 14.464844 C 2.773438 14.464844 3.003906 14.390625 3.195312 14.234375 C 3.636719 13.875 3.707031 13.226562 3.347656 12.78125 C 3.335938 12.765625 3.316406 12.761719 3.300781 12.746094 L 13.632812 4.402344 C 13.644531 4.417969 13.648438 4.4375 13.660156 4.453125 C 13.863281 4.707031 14.164062 4.835938 14.464844 4.835938 C 14.695312 4.835938 14.921875 4.761719 15.113281 4.609375 C 15.558594 4.246094 15.628906 3.597656 15.269531 3.152344 C 15.066406 2.902344 14.765625 2.785156 14.464844 2.785156 L 14.441406 2.785156 C 14.515625 2.484375 14.464844 2.160156 14.257812 1.898438 C 14.054688 1.644531 13.757812 1.515625 13.453125 1.515625 Z M 13.453125 1.515625"/><path style="stroke:none;fill-rule:nonzero;fill:#ccc;fill-opacity:1" d="M 13.453125 14.214844 C 13.273438 14.214844 13.105469 14.152344 12.960938 14.039062 C 12.632812 13.773438 12.578125 13.292969 12.828125 12.957031 C 12.84375 12.945312 12.863281 12.929688 12.882812 12.910156 C 12.929688 12.859375 12.953125 12.789062 12.945312 12.722656 C 12.9375 12.65625 12.90625 12.59375 12.851562 12.546875 L 2.523438 4.203125 C 2.476562 4.167969 2.421875 4.148438 2.363281 4.148438 C 2.355469 4.148438 2.34375 4.148438 2.332031 4.152344 C 2.265625 4.160156 2.203125 4.195312 2.164062 4.25 C 2.144531 4.273438 2.132812 4.296875 2.125 4.316406 C 1.984375 4.484375 1.765625 4.585938 1.535156 4.585938 C 1.351562 4.585938 1.183594 4.523438 1.042969 4.410156 C 0.707031 4.140625 0.652344 3.644531 0.921875 3.308594 C 1.066406 3.132812 1.28125 3.035156 1.53125 3.035156 L 1.554688 3.035156 C 1.628906 3.035156 1.703125 3 1.75 2.941406 C 1.796875 2.882812 1.816406 2.804688 1.796875 2.726562 C 1.765625 2.582031 1.734375 2.300781 1.933594 2.054688 C 2.085938 1.871094 2.308594 1.765625 2.546875 1.765625 C 2.726562 1.765625 2.894531 1.828125 3.035156 1.941406 C 3.363281 2.207031 3.421875 2.6875 3.167969 3.023438 C 3.152344 3.035156 3.132812 3.050781 3.113281 3.070312 C 3.070312 3.121094 3.046875 3.191406 3.054688 3.257812 C 3.058594 3.324219 3.09375 3.390625 3.144531 3.429688 L 13.480469 11.773438 C 13.523438 11.808594 13.578125 11.828125 13.636719 11.828125 C 13.644531 11.828125 13.65625 11.828125 13.667969 11.828125 C 13.734375 11.816406 13.796875 11.78125 13.835938 11.730469 C 13.855469 11.703125 13.867188 11.679688 13.875 11.664062 C 14.019531 11.492188 14.234375 11.390625 14.46875 11.390625 C 14.648438 11.390625 14.820312 11.453125 14.960938 11.566406 C 15.296875 11.839844 15.347656 12.332031 15.078125 12.667969 C 14.933594 12.84375 14.71875 12.941406 14.472656 12.941406 L 14.445312 12.941406 C 14.371094 12.941406 14.296875 12.976562 14.25 13.035156 C 14.203125 13.09375 14.183594 13.175781 14.203125 13.25 C 14.238281 13.394531 14.265625 13.675781 14.066406 13.921875 C 13.917969 14.109375 13.691406 14.214844 13.453125 14.214844 Z M 13.453125 14.214844"/><path style="stroke:none;fill-rule:nonzero;fill:#a1a1a1;fill-opacity:1" d="M 2.546875 2.015625 C 2.632812 2.015625 2.757812 2.035156 2.878906 2.132812 C 3.097656 2.308594 3.140625 2.621094 2.984375 2.847656 C 2.96875 2.863281 2.949219 2.882812 2.925781 2.90625 C 2.835938 3.007812 2.792969 3.144531 2.804688 3.277344 C 2.816406 3.414062 2.882812 3.539062 2.988281 3.625 L 13.320312 11.96875 C 13.410156 12.039062 13.519531 12.078125 13.636719 12.078125 C 13.65625 12.078125 13.675781 12.078125 13.695312 12.074219 C 13.832031 12.058594 13.953125 11.988281 14.035156 11.878906 C 14.054688 11.851562 14.070312 11.828125 14.078125 11.804688 C 14.179688 11.703125 14.316406 11.640625 14.464844 11.640625 C 14.550781 11.640625 14.679688 11.664062 14.796875 11.761719 C 15.027344 11.945312 15.066406 12.285156 14.878906 12.511719 C 14.753906 12.671875 14.566406 12.695312 14.46875 12.695312 L 14.445312 12.695312 C 14.292969 12.695312 14.148438 12.761719 14.054688 12.878906 C 13.957031 13 13.921875 13.160156 13.957031 13.308594 C 13.980469 13.410156 14 13.605469 13.871094 13.765625 C 13.769531 13.890625 13.617188 13.964844 13.453125 13.964844 C 13.367188 13.964844 13.242188 13.945312 13.121094 13.847656 C 12.902344 13.671875 12.859375 13.359375 13.015625 13.132812 C 13.03125 13.113281 13.050781 13.097656 13.074219 13.074219 C 13.164062 12.972656 13.207031 12.835938 13.195312 12.703125 C 13.183594 12.566406 13.117188 12.441406 13.011719 12.355469 L 2.679688 4.011719 C 2.589844 3.9375 2.480469 3.898438 2.367188 3.898438 C 2.347656 3.898438 2.324219 3.898438 2.304688 3.902344 C 2.171875 3.917969 2.046875 3.988281 1.964844 4.097656 C 1.945312 4.125 1.929688 4.148438 1.921875 4.171875 C 1.820312 4.277344 1.683594 4.335938 1.535156 4.335938 C 1.449219 4.335938 1.320312 4.316406 1.203125 4.21875 C 0.972656 4.03125 0.933594 3.695312 1.121094 3.464844 C 1.246094 3.308594 1.433594 3.285156 1.535156 3.285156 L 1.558594 3.285156 C 1.707031 3.285156 1.851562 3.214844 1.945312 3.097656 C 2.042969 2.976562 2.078125 2.820312 2.042969 2.667969 C 2.019531 2.570312 2 2.375 2.128906 2.214844 C 2.230469 2.085938 2.382812 2.015625 2.546875 2.015625 M 2.546875 1.515625 C 2.242188 1.515625 1.945312 1.644531 1.738281 1.898438 C 1.53125 2.15625 1.484375 2.484375 1.554688 2.785156 L 1.53125 2.785156 C 1.230469 2.785156 0.933594 2.898438 0.730469 3.152344 C 0.371094 3.597656 0.441406 4.246094 0.886719 4.605469 C 1.078125 4.761719 1.304688 4.835938 1.535156 4.835938 C 1.835938 4.835938 2.132812 4.703125 2.335938 4.453125 C 2.351562 4.4375 2.351562 4.417969 2.363281 4.398438 L 12.695312 12.742188 C 12.683594 12.757812 12.664062 12.765625 12.648438 12.78125 C 12.292969 13.226562 12.359375 13.875 12.804688 14.234375 C 12.996094 14.390625 13.226562 14.464844 13.453125 14.464844 C 13.753906 14.464844 14.054688 14.332031 14.257812 14.078125 C 14.46875 13.820312 14.515625 13.492188 14.441406 13.191406 L 14.46875 13.191406 C 14.769531 13.191406 15.066406 13.078125 15.269531 12.824219 C 15.628906 12.378906 15.558594 11.730469 15.113281 11.371094 C 14.921875 11.214844 14.691406 11.140625 14.464844 11.140625 C 14.164062 11.140625 13.863281 11.273438 13.660156 11.523438 C 13.648438 11.542969 13.644531 11.5625 13.632812 11.578125 L 3.300781 3.234375 C 3.316406 3.222656 3.335938 3.214844 3.347656 3.199219 C 3.707031 2.753906 3.636719 2.105469 3.195312 1.746094 C 3 1.589844 2.773438 1.515625 2.546875 1.515625 Z M 2.546875 1.515625"/><path style="stroke:none;fill-rule:nonzero;fill:url(#linear0)" d="M 5.882812 13.15625 C 5.765625 13.15625 5.671875 13.0625 5.671875 12.945312 L 5.671875 11.554688 C 5.671875 11.417969 5.558594 11.304688 5.421875 11.304688 L 4.679688 11.304688 C 4.304688 11.304688 3.953125 11.160156 3.691406 10.894531 C 3.425781 10.628906 3.28125 10.277344 3.28125 9.90625 L 3.28125 7.558594 C 3.28125 4.957031 5.398438 2.84375 8 2.84375 C 10.601562 2.84375 12.714844 4.957031 12.714844 7.558594 L 12.714844 9.902344 C 12.714844 10.675781 12.085938 11.304688 11.316406 11.304688 L 10.578125 11.304688 C 10.4375 11.304688 10.328125 11.417969 10.328125 11.554688 L 10.328125 12.945312 C 10.328125 13.0625 10.230469 13.15625 10.113281 13.15625 Z M 5.882812 13.15625"/><path style="stroke:none;fill-rule:nonzero;fill:#a1a1a1;fill-opacity:1" d="M 8 3.09375 C 10.460938 3.09375 12.464844 5.097656 12.464844 7.558594 L 12.464844 9.902344 C 12.464844 10.539062 11.949219 11.054688 11.316406 11.054688 L 10.578125 11.054688 C 10.300781 11.054688 10.078125 11.277344 10.078125 11.554688 L 10.078125 12.90625 L 5.921875 12.90625 L 5.921875 11.554688 C 5.921875 11.277344 5.695312 11.054688 5.421875 11.054688 L 4.679688 11.054688 C 4.375 11.054688 4.085938 10.933594 3.867188 10.714844 C 3.652344 10.5 3.53125 10.210938 3.53125 9.902344 L 3.53125 7.558594 C 3.535156 5.097656 5.539062 3.09375 8 3.09375 M 8 2.59375 C 5.261719 2.59375 3.035156 4.820312 3.035156 7.558594 L 3.035156 9.902344 C 3.03125 10.8125 3.769531 11.554688 4.683594 11.554688 L 5.421875 11.554688 L 5.421875 12.945312 C 5.421875 13.199219 5.628906 13.40625 5.882812 13.40625 L 10.113281 13.40625 C 10.371094 13.40625 10.578125 13.203125 10.578125 12.945312 L 10.578125 11.554688 L 11.316406 11.554688 C 12.226562 11.554688 12.96875 10.8125 12.96875 9.902344 L 12.96875 7.558594 C 12.964844 4.820312 10.738281 2.59375 8 2.59375 Z M 8 2.59375"/><path style="stroke:none;fill-rule:nonzero;fill:#242424;fill-opacity:1" d="M 8.304688 10.382812 L 7.6875 10.382812 C 7.464844 10.382812 7.308594 10.167969 7.371094 9.953125 L 7.578125 9.285156 C 7.703125 8.871094 8.292969 8.871094 8.417969 9.285156 L 8.625 9.953125 C 8.6875 10.167969 8.527344 10.382812 8.304688 10.382812 Z M 8.304688 10.382812"/><path style="stroke:none;fill-rule:nonzero;fill:#242424;fill-opacity:1" d="M 9.128906 8.050781 C 9.128906 7.339844 9.703125 6.765625 10.414062 6.765625 C 11.125 6.765625 11.703125 7.339844 11.703125 8.050781 C 11.703125 8.765625 11.128906 9.339844 10.414062 9.339844 C 9.703125 9.339844 9.128906 8.765625 9.128906 8.050781 Z M 9.128906 8.050781"/><path style="stroke:none;fill-rule:nonzero;fill:#242424;fill-opacity:1" d="M 4.292969 8.050781 C 4.292969 7.339844 4.867188 6.765625 5.582031 6.765625 C 6.292969 6.765625 6.867188 7.339844 6.867188 8.050781 C 6.867188 8.765625 6.292969 9.339844 5.582031 9.339844 C 4.871094 9.339844 4.292969 8.765625 4.292969 8.050781 Z M 4.292969 8.050781"/><path style="stroke:none;fill-rule:nonzero;fill:#242424;fill-opacity:1" d="M 6.695312 13.378906 L 6.648438 13.378906 C 6.5 13.378906 6.378906 13.257812 6.378906 13.109375 L 6.378906 12.390625 C 6.378906 12.238281 6.5 12.117188 6.648438 12.117188 L 6.695312 12.117188 C 6.847656 12.117188 6.96875 12.238281 6.96875 12.390625 L 6.96875 13.109375 C 6.96875 13.257812 6.847656 13.378906 6.695312 13.378906 Z M 6.695312 13.378906"/><path style="stroke:none;fill-rule:nonzero;fill:#242424;fill-opacity:1" d="M 8.019531 13.359375 L 7.972656 13.359375 C 7.824219 13.359375 7.703125 13.238281 7.703125 13.085938 L 7.703125 12.367188 C 7.703125 12.21875 7.824219 12.097656 7.972656 12.097656 L 8.019531 12.097656 C 8.171875 12.097656 8.292969 12.21875 8.292969 12.367188 L 8.292969 13.085938 C 8.292969 13.238281 8.171875 13.359375 8.019531 13.359375 Z M 8.019531 13.359375"/><path style="stroke:none;fill-rule:nonzero;fill:#242424;fill-opacity:1" d="M 9.34375 13.359375 L 9.296875 13.359375 C 9.148438 13.359375 9.027344 13.238281 9.027344 13.085938 L 9.027344 12.367188 C 9.027344 12.21875 9.148438 12.097656 9.296875 12.097656 L 9.34375 12.097656 C 9.496094 12.097656 9.617188 12.21875 9.617188 12.367188 L 9.617188 13.085938 C 9.617188 13.238281 9.496094 13.359375 9.34375 13.359375 Z M 9.34375 13.359375"/></g></svg>

<svg xmlns="http://www.w3.org/2000/svg" width="16pt" height="16pt" viewBox="0 0 16 16"><defs><linearGradient id="a" x1="64" x2="64" y1="105.26" y2="22.739" gradientTransform="scale(.125)" gradientUnits="userSpaceOnUse"><stop offset=".001" style="stop-color:#c7c7c7;stop-opacity:1"/><stop offset=".28" style="stop-color:#cacaca;stop-opacity:1"/><stop offset=".525" style="stop-color:#d5d5d5;stop-opacity:1"/><stop offset=".758" style="stop-color:#e7e7e7;stop-opacity:1"/><stop offset=".947" style="stop-color:#fcfcfc;stop-opacity:1"/></linearGradient></defs><path d="M2.547 14.215a.79.79 0 0 1-.613-.293c-.2-.246-.168-.527-.137-.672a.25.25 0 0 0-.047-.215.25.25 0 0 0-.195-.09H1.53a.77.77 0 0 1-.61-.273.791.791 0 0 1 .614-1.281c.23 0 .445.101.594.273q.012.028.035.066c.043.051.102.09.168.098h.031q.09-.001.16-.055L12.855 3.43a.25.25 0 0 0 .094-.172.27.27 0 0 0-.062-.188 1 1 0 0 0-.055-.047.786.786 0 0 1 1.238-.964.77.77 0 0 1 .133.668.25.25 0 0 0 .05.214.25.25 0 0 0 .196.094h.024a.76.76 0 0 1 .605.274.787.787 0 0 1-.117 1.105.78.78 0 0 1-.492.172.78.78 0 0 1-.594-.27.2.2 0 0 0-.04-.066.24.24 0 0 0-.167-.098c-.008 0-.02-.004-.031-.004a.27.27 0 0 0-.157.055L3.148 12.547a.27.27 0 0 0-.093.176c-.004.07.02.136.062.187q.031.03.055.047a.793.793 0 0 1-.133 1.086.8.8 0 0 1-.492.172m0 0" style="stroke:none;fill-rule:nonzero;fill:#ccc;fill-opacity:1"/><path d="M13.453 2.016c.164 0 .317.07.418.195.129.164.11.355.086.457a.5.5 0 0 0 .488.617h.024c.097 0 .285.024.414.18a.537.537 0 0 1-.418.87.52.52 0 0 1-.383-.163.507.507 0 0 0-.387-.27q-.03-.005-.058-.004a.5.5 0 0 0-.317.114L2.988 12.355a.503.503 0 0 0-.062.72q.035.03.058.054a.53.53 0 0 1-.105.715.53.53 0 0 1-.75-.078.54.54 0 0 1-.086-.457.5.5 0 0 0-.488-.618H1.53a.52.52 0 0 1-.41-.18.54.54 0 0 1 .078-.753.53.53 0 0 1 .336-.117c.149 0 .285.058.387.164.008.02.027.047.043.07a.52.52 0 0 0 .34.2q.03.002.058.003a.5.5 0 0 0 .317-.113l10.332-8.34a.503.503 0 0 0 .062-.719l-.058-.058a.53.53 0 0 1 .437-.832m0-.5a1.035 1.035 0 0 0-.8 1.684c.011.015.03.023.046.034L2.363 11.578c-.011-.015-.011-.035-.027-.05a1.023 1.023 0 0 0-1.45-.157 1.037 1.037 0 0 0-.156 1.457c.204.25.5.367.801.367h.024c-.07.301-.024.625.183.883.207.254.508.387.809.387a1.035 1.035 0 0 0 .8-1.684c-.011-.015-.03-.02-.046-.035l10.332-8.344c.012.016.015.035.027.051.203.254.504.383.805.383a1.033 1.033 0 0 0 .805-1.684 1.02 1.02 0 0 0-.805-.367h-.024c.075-.3.024-.625-.183-.887a1.02 1.02 0 0 0-.805-.382m0 0" style="stroke:none;fill-rule:nonzero;fill:#a1a1a1;fill-opacity:1"/><path d="M13.453 14.215a.8.8 0 0 1-.492-.176.79.79 0 0 1-.133-1.082 1 1 0 0 0 .055-.047.24.24 0 0 0 .062-.187.27.27 0 0 0-.093-.176L2.523 4.203a.27.27 0 0 0-.16-.055q-.013-.001-.031.004a.24.24 0 0 0-.168.098.2.2 0 0 0-.039.066.77.77 0 0 1-.59.27.786.786 0 0 1-.613-1.277.77.77 0 0 1 .61-.274h.023a.25.25 0 0 0 .195-.094.25.25 0 0 0 .047-.214c-.031-.145-.063-.426.137-.672a.8.8 0 0 1 .613-.29.786.786 0 0 1 .621 1.258 1 1 0 0 0-.055.047.25.25 0 0 0-.058.188c.004.066.039.133.09.172l10.335 8.343a.25.25 0 0 0 .157.055h.031a.27.27 0 0 0 .168-.098 1 1 0 0 0 .039-.066.782.782 0 0 1 1.086-.098.786.786 0 0 1 .117 1.102.77.77 0 0 1-.605.273h-.028a.25.25 0 0 0-.242.309.77.77 0 0 1-.137.672.78.78 0 0 1-.613.293m0 0" style="stroke:none;fill-rule:nonzero;fill:#ccc;fill-opacity:1"/><path d="M2.547 2.016a.53.53 0 0 1 .438.832l-.06.058a.503.503 0 0 0 .063.719l10.332 8.344c.09.07.2.11.317.11q.03.001.058-.005a.49.49 0 0 0 .383-.27.55.55 0 0 1 .387-.163.52.52 0 0 1 .332.12.53.53 0 0 1 .082.75.51.51 0 0 1-.41.184h-.024a.5.5 0 0 0-.488.614c.023.101.043.296-.086.457a.54.54 0 0 1-.75.082.53.53 0 0 1-.105-.715c.015-.02.035-.035.058-.059a.503.503 0 0 0-.062-.719L2.68 4.012a.5.5 0 0 0-.313-.114q-.032-.001-.062.004a.5.5 0 0 0-.34.196.3.3 0 0 0-.043.074.53.53 0 0 1-.719.047.535.535 0 0 1-.082-.754.52.52 0 0 1 .414-.18h.024a.5.5 0 0 0 .484-.617.53.53 0 0 1 .086-.453.53.53 0 0 1 .418-.2m0-.5c-.305 0-.602.13-.809.383a1.03 1.03 0 0 0-.183.887H1.53c-.3 0-.597.113-.8.367-.36.446-.29 1.094.156 1.453a1.031 1.031 0 0 0 1.45-.152c.015-.016.015-.035.026-.055l10.332 8.344c-.011.016-.03.024-.047.04a1.035 1.035 0 0 0 .805 1.683c.3 0 .602-.133.805-.387.21-.258.258-.586.183-.887h.028c.3 0 .597-.113.8-.367.36-.445.29-1.094-.156-1.453a1.02 1.02 0 0 0-.648-.23c-.3 0-.602.132-.805.382-.012.02-.015.04-.027.055L3.3 3.234c.015-.011.035-.02.047-.035a1.035 1.035 0 0 0-.801-1.683m0 0" style="stroke:none;fill-rule:nonzero;fill:#a1a1a1;fill-opacity:1"/><path d="M5.883 13.156a.21.21 0 0 1-.211-.21v-1.391a.25.25 0 0 0-.25-.25H4.68c-.375 0-.727-.145-.989-.41a1.4 1.4 0 0 1-.41-.989V7.56A4.72 4.72 0 0 1 8 2.844a4.72 4.72 0 0 1 4.715 4.715v2.343c0 .774-.63 1.403-1.399 1.403h-.738a.25.25 0 0 0-.25.25v1.39c0 .117-.098.211-.215.211Zm0 0" style="stroke:none;fill-rule:nonzero;fill:url(#a)"/><path d="M8 3.094a4.47 4.47 0 0 1 4.465 4.465v2.343c0 .637-.516 1.153-1.149 1.153h-.738c-.277 0-.5.222-.5.5v1.351H5.922v-1.351c0-.278-.227-.5-.5-.5H4.68c-.305 0-.594-.121-.813-.34a1.14 1.14 0 0 1-.336-.813V7.56A4.477 4.477 0 0 1 8 3.094m0-.5a4.97 4.97 0 0 0-4.965 4.965v2.343a1.647 1.647 0 0 0 1.649 1.653h.738v1.39c0 .254.207.461.46.461h4.231a.46.46 0 0 0 .465-.46v-1.391h.738c.91 0 1.653-.742 1.653-1.653V7.56A4.975 4.975 0 0 0 8 2.594m0 0" style="stroke:none;fill-rule:nonzero;fill:#a1a1a1;fill-opacity:1"/><path d="M8.305 10.383h-.617a.333.333 0 0 1-.317-.43l.207-.668c.125-.414.715-.414.84 0l.207.668a.335.335 0 0 1-.32.43M9.129 8.05a1.287 1.287 0 1 1 2.574.004 1.287 1.287 0 0 1-2.574-.003M4.293 8.05c0-.71.574-1.284 1.289-1.284.711 0 1.285.574 1.285 1.285a1.288 1.288 0 1 1-2.574 0M6.695 13.379h-.047a.27.27 0 0 1-.27-.27v-.718a.27.27 0 0 1 .27-.274h.047c.153 0 .274.121.274.274v.718a.27.27 0 0 1-.274.27M8.02 13.36h-.047a.27.27 0 0 1-.27-.274v-.719a.27.27 0 0 1 .27-.27h.047a.27.27 0 0 1 .273.27v.719a.27.27 0 0 1-.273.273M9.344 13.36h-.047a.27.27 0 0 1-.27-.274v-.719a.27.27 0 0 1 .27-.27h.047a.27.27 0 0 1 .273.27v.719a.27.27 0 0 1-.273.273m0 0" style="stroke:none;fill-rule:nonzero;fill:#242424;fill-opacity:1"/></svg>
